X: 27
M:2/4
L:1/16
K:Bb
"_mf"vB,2B2 B,B {c}((3BAB) | vdBfd bB {c}((3BAB) | \
vGBFB EBDB |1 ABce dBB2 :|2 cBAc B2vde |]
|:vfbdf BdFB | AFAc ecAF | fbdf BdFd | ecAc B2vdue |
fbdf BdFB | AFAc ecAF | \
.f(de)(c d)(AB)(G |1 F)ECD B,2vde :|2 FECD B,2 z2 :|


